svg/fluentui-system-icons/ic_fluent_image_table_20_regular.svg

<svg width="20" height="20" viewBox="0 0 20 20" fill="none" xmlns="http://www.w3.org/2000/svg">
<path d="M11 8C10.4477 8 10 8.44772 10 9C10 9.55228 10.4477 10 11 10C11.5523 10 12 9.55228 12 9C12 8.44772 11.5523 8 11 8ZM3 6C3 4.34315 4.34315 3 6 3H14C15.6569 3 17 4.34315 17 6V14C17 15.6569 15.6569 17 14 17H6C4.34315 17 3 15.6569 3 14V6ZM6 4C4.89543 4 4 4.89543 4 6L6 6V4ZM7 4V6H13V4H7ZM14 4V6H16C16 4.89543 15.1046 4 14 4ZM16 7H14V13H16V7ZM16 14H14V16C15.1046 16 16 15.1046 16 14ZM13 16V14H7V16H13ZM6 16L6 14H4C4 15.1046 4.89543 16 6 16ZM4 13H6V7H4V13ZM7 7V13H7.29588L8.79796 11.4979C9.46186 10.834 10.5382 10.834 11.2021 11.4979L12.7042 13H13V7H7ZM11.29 13L10.495 12.205C10.2217 11.9317 9.77844 11.9317 9.50507 12.205L8.71009 13H11.29Z" fill="#212121"/>
</svg>

<svg xmlns="http://www.w3.org/2000/svg" width="20" height="20"><path d="M11 8a1 1 0 1 0 0 2 1 1 0 0 0 0-2ZM3 6a3 3 0 0 1 3-3h8a3 3 0 0 1 3 3v8a3 3 0 0 1-3 3H6a3 3 0 0 1-3-3V6Zm3-2a2 2 0 0 0-2 2h2V4Zm1 0v2h6V4H7Zm7 0v2h2a2 2 0 0 0-2-2Zm2 3h-2v6h2V7Zm0 7h-2v2a2 2 0 0 0 2-2Zm-3 2v-2H7v2h6Zm-7 0v-2H4a2 2 0 0 0 2 2Zm-2-3h2V7H4v6Zm3-6v6h.296l1.502-1.502a1.7 1.7 0 0 1 2.404 0L12.704 13H13V7H7Zm4.29 6-.795-.795a.7.7 0 0 0-.99 0L8.71 13h2.58Z"/></svg>
